X: 1
T: Balmoral Highlanders, The
M: 4/4
L: 1/8
R: barndance
K: Amix
e2|A>e c<e A>e c<e|e>Af>A e2d>B|G>d B<d G>d B<d|G>AB>c d>Be>c|
A>e c<e A>e c<e|e>Af>A e2d>c|B<dG>B g>fe>d|c2A2 A<A:|
e2|c<ea2 c<ea2|c<ea>f e2d>c|BBg2 BBg2|BBg2 a>gf>d|
c<ea2 g>ea2|g>ef>d e2d>c|B<dG>B g>fe>d|c2A2 A<A:|
